X: 544
T:Paddy Rafferty's Favourite
R:reel
S:Mike and Mary Rafferty
N:after Charlie Harris' reel.
Z:lesl
M:C|
N:Posted to the woodenflute mailing list, July 2002
K:G
|:GEdB c3e|dGBG AGEA|GEdB c2ce|1 dGBG A{c}AGE:|2 dGBG A{c}AG2|
Bddg egde|gdBG AGEz|Bddg egdB|GABG A{c}AG2|
Bddg e{g}ede|gdBG AGEz|Bddg ezdB|1 GABG A{c}AGE:|2 GABG A{c}AGF|G8||

